X: 3
T:Sweetheart Reel (#203), The
M:4/4
L:1/8
S:Capt. F. O'Neill
R:Reel
K:G
A/2G/2|:EAAB "tr"e2 dB|"tr"e2 dB GABG|EAAB "tr"edef|"tr"gedB "tr"BAA2:|
eaac' "tr"b2 ag|(3efg dg egdg|eaac' "tr"b2 ag|(3efg "tr"dB "tr"BA A2|
eaac' "tr"b2 ag|(3efg dg egdg|bgaf "tr"gfed|(3efg dB "tr"BA A2||

